!!!SOCIAL_FUNCTION: hand game and ghost dance songs
!!!PDT:	1929
!!!LING_GROUP: Caddoan
!!!LANG: Non-Tone
!!!REG: Oklahoma
!!!COM: Anon.
!!!OTL: You Came Near Finding Them
!!!ODT: <1920//
!!!MPN: Tsastawinahiigat [She led a phony into the ceremony, Effie Blain]
!!!MLC: Pawnee, Oklahoma, United States of America
!! Song was recorded either 1919 or 1920.
!!!AGN: monody
!!!AMT: simple duple
!!!RWG: Transcribed pitches, durations, and meters are only approximate.
!! Drum not recorded
**kern
*ICvox
*Ifemale
*clefG2
*k[b-e-]
*M2/4
*MM76
=1-
8.f
16g
4f
=2
12g
12f
12c
12c
12c
12c
=3
8.d
16f
4e-
=4
12f
12c
12c
12B-
12B-
12B-
=5
8.B-
16c
4B-
=6
12c
12B-
12F
12F
12F
12F
=7
8.B-
16c
4B-
=8
12c
12c
12B-
12B-
12B-
12B-
==
*-
!!!HAO:    The next song was said to have come down from a time when only
!!!HAO: men played the hand game.
!!!HTX: [no free translation]
!!!CNT: Pawnee
!!!TXO: Pawnee
!!!OCY: United States
!!!OCL: Frances Densmore
!!!YOR: Frances Densmore, "Pawnee Music"
!!!YOR: Bulletin 93, page 78, No. 49
!!!PPR: Smithsonian Institution, Bureau of American Ethnology
!!!PPR: Government Printing Office
!!!PDT: 1926
!!!PPP: Washington, DC, United States of America
!!!YEC: Electronic Copyright 2000 David Huron
!!!YER: September 2000
!!!YEN: United States of America
!!!ENC: David Huron
!!!RDT: September 4, 2000
!!!EEV: Release 1.0
!!!AIN: vox
